X:973
T:Union Street Session
R:reel
C:Paul Cranford
S:David Lombardi
Z:id:hn-reel-973
M:C|
L:1/8
K:D
d2AG FEDF | EA,~A,2 GFED | EFDF GA (3Bcd | AE~E2 cdec |
dcAG FEDF | EA,~A,2 GFED | EFDF GA (3Bcd | AE~E2 FDFA :|
|: d2fd gdfg | aA~A2 cdec | d2fd gdfg | ageg ~f3e |
d2fd gdfg | aA~A2 cdeg | ~f3d eAcd | e2dc dABc :|

